X: 836
T: The Races at Carrick
N:"Collected by Cronin"
B:O'Neill's 836
Z:Transcribed by Dan G. Petersen, dangp@post6.tele.dk
M:6/8
L:1/8
K:D
g|fdB Bcd|ecA A2G|F>AA def|gfg bag|
fdB Bcd|ecA A z G|F>AA def|gec d2:|
e|~f3 fed|faa a2f|gfg Bcd|ecA A2d|
~f3 fed|faa agf|gfg bag|fdd d2:|


